X:1
T:Within a Mile
Z:Jack Campin: "Embro, Embro", transcription (c) 2001
F:18misc/abc/Kerr.abc
S:Kerr's Merry Melodies book 2
M:C
L:1/8
Q:1/4=120
K:A
c>d|e<c B>c A2  C>A|F<A E>C E2  A>B|c<e d>a e<c A>A|c2 B2   B2 c>d|
    e<c B>c A2  C>A|F<A E>C E2  A>B|c<e d>a e<c B>c|A>a e>c A2 E2||
    A>B c>d e<c a2 |A>B c>d e<c a2 |A>B A>F E<C D>A|c>A c<e f2 a2 |
    A>B c>d e<c a2 |A>B c>d e<c a2 |A>B A>F E<C D>A|c<e B>c A2   |]

